public/static/icons/editor/image.svg

<svg height="24" viewBox="0 0 24 24" width="24" xmlns="http://www.w3.org/2000/svg"><path d="m20 1c2.209139 0 4 1.790861 4 4v14c0 2.209139-1.790861 4-4 4h-16c-2.209139 0-4-1.790861-4-4v-14c0-2.209139 1.790861-4 4-4zm-4.5210628 7.91431888c-.369459-.41051002-1.0017488-.44378843-1.4122588-.07432941l-7.1296849 6.41671643c-.21071386.1896424-.33103527.4598076-.33103527.7432941 0 .5522847.44771525 1 1 1h10.69452727c.1699443 0 .337085-.0433105.485643-.1258427.4827837-.2682132.6567275-.8770165.3885143-1.3598002l-3.5648424-6.41671642c-.0365781-.0658405-.0804775-.12733776-.1308632-.1833218zm-8.4789372-2.91431888c-1.1045695 0-2 .8954305-2 2s.8954305 2 2 2 2-.8954305 2-2-.8954305-2-2-2z" fill-rule="evenodd"/></svg>

<svg xmlns="http://www.w3.org/2000/svg" width="24" height="24" viewBox="0 0 24 24">
  <path fill-rule="evenodd" d="M20,1 C22.209139,1 24,2.790861 24,5 L24,19 C24,21.209139 22.209139,23 20,23 L4,23 C1.790861,23 2.705415e-16,21.209139 0,19 L0,5 C-2.705415e-16,2.790861 1.790861,1 4,1 L20,1 Z M15.4789372,8.91431888 C15.1094782,8.50380886 14.4771884,8.47053045 14.0666784,8.83998947 L14.0666784,8.83998947 L6.9369935,15.2567059 C6.72627964,15.4463483 6.60595823,15.7165135 6.60595823,16 C6.60595823,16.5522847 7.05367348,17 7.60595823,17 L7.60595823,17 L18.3004855,17 C18.4704298,17 18.6375705,16.9566895 18.7861285,16.8741573 C19.2689122,16.6059441 19.442856,15.9971408 19.1746428,15.5143571 L19.1746428,15.5143571 L15.6098004,9.09764068 C15.5732223,9.03180018 15.5293229,8.97030292 15.4789372,8.91431888 Z M7,6 C5.8954305,6 5,6.8954305 5,8 C5,9.1045695 5.8954305,10 7,10 C8.1045695,10 9,9.1045695 9,8 C9,6.8954305 8.1045695,6 7,6 Z"/>
</svg>
